src/assets/images/prototype/resultats/4-parametres.svg

<svg width="27" height="27" viewBox="0 0 27 27" fill="none" xmlns="http://www.w3.org/2000/svg">
<path d="M11 1V2.5C11 3.05228 11.4477 3.5 12 3.5H15C15.5523 3.5 16 3.05228 16 2.5V1C16 0.447715 15.5523 0 15 0H12C11.4477 0 11 0.447715 11 1Z" fill="#D9D9D9"/>
<path d="M16 26L16 24.5C16 23.9477 15.5523 23.5 15 23.5L12 23.5C11.4477 23.5 11 23.9477 11 24.5L11 26C11 26.5523 11.4477 27 12 27L15 27C15.5523 27 16 26.5523 16 26Z" fill="#D9D9D9"/>
<path d="M1 16L2.5 16C3.05228 16 3.5 15.5523 3.5 15L3.5 12C3.5 11.4477 3.05228 11 2.5 11L1 11C0.447715 11 -1.98987e-07 11.4477 -1.74846e-07 12L-4.37114e-08 15C-1.95703e-08 15.5523 0.447715 16 1 16Z" fill="#D9D9D9"/>
<path d="M26 11L24.5 11C23.9477 11 23.5 11.4477 23.5 12L23.5 15C23.5 15.5523 23.9477 16 24.5 16L26 16C26.5523 16 27 15.5523 27 15L27 12C27 11.4477 26.5523 11 26 11Z" fill="#D9D9D9"/>
<path d="M6.72176 23.8136L7.78242 22.753C8.17294 22.3625 8.17294 21.7293 7.78242 21.3388L5.66109 19.2175C5.27057 18.8269 4.63741 18.8269 4.24688 19.2175L3.18622 20.2781C2.7957 20.6686 2.7957 21.3018 3.18622 21.6923L5.30754 23.8136C5.69807 24.2042 6.33123 24.2042 6.72176 23.8136Z" fill="#D9D9D9"/>
<path d="M20.2782 3.18635L19.2176 4.24702C18.8271 4.63754 18.8271 5.2707 19.2176 5.66123L21.3389 7.78255C21.7294 8.17307 22.3626 8.17307 22.7531 7.78255L23.8138 6.72189C24.2043 6.33136 24.2043 5.6982 23.8138 5.30767L21.6925 3.18635C21.3019 2.79583 20.6688 2.79583 20.2782 3.18635Z" fill="#D9D9D9"/>
<path d="M23.8136 20.2782L22.753 19.2176C22.3625 18.8271 21.7293 18.8271 21.3388 19.2176L19.2175 21.3389C18.8269 21.7294 18.8269 22.3626 19.2175 22.7531L20.2781 23.8138C20.6686 24.2043 21.3018 24.2043 21.6923 23.8138L23.8136 21.6925C24.2042 21.3019 24.2042 20.6688 23.8136 20.2782Z" fill="#D9D9D9"/>
<path d="M3.18635 6.72175L4.24702 7.78241C4.63754 8.17294 5.2707 8.17294 5.66123 7.78241L7.78255 5.66109C8.17307 5.27057 8.17307 4.6374 7.78255 4.24688L6.72189 3.18622C6.33136 2.7957 5.6982 2.7957 5.30767 3.18622L3.18635 5.30754C2.79583 5.69807 2.79583 6.33123 3.18635 6.72175Z" fill="#D9D9D9"/>
<path fill-rule="evenodd" clip-rule="evenodd" d="M13.5 24C19.299 24 24 19.299 24 13.5C24 7.70101 19.299 3 13.5 3C7.70101 3 3 7.70101 3 13.5C3 19.299 7.70101 24 13.5 24ZM13.5 21.375C17.8492 21.375 21.375 17.8492 21.375 13.5C21.375 9.15076 17.8492 5.625 13.5 5.625C9.15076 5.625 5.625 9.15076 5.625 13.5C5.625 17.8492 9.15076 21.375 13.5 21.375Z" fill="#D9D9D9"/>
</svg>

<svg width="27" height="27" fill="none" xmlns="http://www.w3.org/2000/svg"><path d="M11 1v1.5a1 1 0 001 1h3a1 1 0 001-1V1a1 1 0 00-1-1h-3a1 1 0 00-1 1zm5 25v-1.5a1 1 0 00-1-1h-3a1 1 0 00-1 1V26a1 1 0 001 1h3a1 1 0 001-1zM1 16h1.5a1 1 0 001-1v-3a1 1 0 00-1-1H1a1 1 0 00-1 1v3a1 1 0 001 1zm25-5h-1.5a1 1 0 00-1 1v3a1 1 0 001 1H26a1 1 0 001-1v-3a1 1 0 00-1-1zM6.722 23.814l1.06-1.061a1 1 0 000-1.414l-2.12-2.121a1 1 0 00-1.415 0l-1.06 1.06a1 1 0 000 1.414l2.12 2.122a1 1 0 001.415 0zM20.278 3.186l-1.06 1.061a1 1 0 000 1.414l2.12 2.122a1 1 0 001.415 0l1.06-1.061a1 1 0 000-1.414l-2.12-2.122a1 1 0 00-1.415 0zm3.536 17.092l-1.061-1.06a1 1 0 00-1.414 0l-2.121 2.12a1 1 0 000 1.415l1.06 1.06a1 1 0 001.414 0l2.122-2.12a1 1 0 000-1.415zM3.186 6.722l1.061 1.06a1 1 0 001.414 0l2.122-2.12a1 1 0 000-1.415l-1.061-1.06a1 1 0 00-1.414 0l-2.122 2.12a1 1 0 000 1.415z" fill="#D9D9D9"/><path fill-rule="evenodd" clip-rule="evenodd" d="M13.5 24C19.299 24 24 19.299 24 13.5S19.299 3 13.5 3 3 7.701 3 13.5 7.701 24 13.5 24zm0-2.625a7.875 7.875 0 100-15.75 7.875 7.875 0 000 15.75z" fill="#D9D9D9"/></svg>
